X:26
T:Cacomistle Polka
M:4/4
L:1/8
C:© Paul Gitlitz 1984
R:Mariachi
B:Giblitz Fancy, 169 Brand New Old Time Fiddle Tunes Vol. 3, Canadian Fiddle Tunes Vol 1
N: A mischievous beastie. A southwestern version of a Raccoon. They love to steal shiny objects. This tune is not really a polka, I'm not sure what it is, but I wrote it with a Mexican Mariachi flavour. Think Chipolte sauce.
D:"To Have and to Hold" available @ www.glitchless.net
K:G
D GB|:"G"d^cde- e d2=c|BABd- dB G2|"D"DFAc- cA FA|"G"Bc^cd zDGB|!
"G"d^c2d ed2=c |BABd- dBG2 |"D"DFAc- cAFD|1"G"G2[GB][GB][GB]zz2:|2"G"G2[GB] [GB][GB]zzD|!
|"D"FEDF- FD EF|"G"GFGB- BAG2|"A7"^cBAc- cABc|"D"d2d2"D7"c2B2|!
"G"GBdg zgfg|"C"agfe- efg2|"D"fede- ed^cd-|d=cBc- cBA2|!
"G"GBdg zgfg|"C"agfe- efg2|"G"bagf "D"edef|"G"g2gg gzzD|!
"D"FEDF- FDEF|"G"GFGB- BAG2|"A7"^cBAc- cABc|"D"d2d2c2B2|!
"G"GBdg zgfg|"C"agfe- efg2|"G"bagf "D"edef|"G"g2gg gzz2|]
